images/ikigai.svg

<svg height="924" viewBox="0 0 905 924" width="905" xmlns="http://www.w3.org/2000/svg"><g fill="none" fill-rule="evenodd"><circle cx="453" cy="283" fill="#e0be41" opacity=".5" r="280"/><circle cx="453" cy="641" fill="#e0be41" opacity=".5" r="280"/><circle cx="283" cy="459" fill="#e0be41" opacity=".5" r="280"/><circle cx="622" cy="459" fill="#e0be41" opacity=".5" r="280"/><path d="m355.653799 545.614361c-8.863284-27.274072-13.653799-56.384774-13.653799-86.614361 0-27.733675 4.032112-54.525599 11.542099-79.821536 30.906046-11.746786 64.430874-18.178464 99.457901-18.178464 34.601821 0 67.737694 6.276473 98.331226 17.753028 7.591311 25.420905 11.668774 52.357767 11.668774 80.246972 0 30.384288-4.839672 59.638211-13.790194 87.032947-30.001778 10.976835-62.406247 16.967053-96.209806 16.967053-34.230791 0-67.026903-6.142591-97.346201-17.385639z" fill="#1dab78"/><path d="m453 566c-156.296584 0-283-126.703416-283-283s126.703416-283 283-283 283 126.703416 283 283-126.703416 283-283 283zm0-6c152.982876 0 277-124.017124 277-277s-124.017124-277-277-277-277 124.017124-277 277 124.017124 277 277 277z" fill="#fff" fill-rule="nonzero"/><path d="m453 566c-156.296584 0-283-126.703416-283-283s126.703416-283 283-283 283 126.703416 283 283-126.703416 283-283 283zm0-6c152.982876 0 277-124.017124 277-277s-124.017124-277-277-277-277 124.017124-277 277 124.017124 277 277 277z" fill="#fff" fill-rule="nonzero"/><path d="m453 924c-156.296584 0-283-126.703416-283-283s126.703416-283 283-283 283 126.703416 283 283-126.703416 283-283 283zm0-6c152.982876 0 277-124.017124 277-277s-124.017124-277-277-277-277 124.017124-277 277 124.017124 277 277 277z" fill="#fff" fill-rule="nonzero"/><path d="m283 742c-156.296584 0-283-126.703416-283-283s126.703416-283 283-283 283 126.703416 283 283-126.703416 283-283 283zm0-6c152.982876 0 277-124.017124 277-277s-124.017124-277-277-277-277 124.017124-277 277 124.017124 277 277 277z" fill="#fff" fill-rule="nonzero"/><path d="m622 742c-156.296584 0-283-126.703416-283-283s126.703416-283 283-283 283 126.703416 283 283-126.703416 283-283 283zm0-6c152.982876 0 277-124.017124 277-277s-124.017124-277-277-277-277 124.017124-277 277 124.017124 277 277 277z" fill="#fff" fill-rule="nonzero"/><g font-size="34" letter-spacing=".25"><text fill="#3e4241" font-family="FranklinGothicURW-Hea, FranklinGothic URW" font-weight="600"><tspan x="553.493" y="281">MISSION</tspan></text><text fill="#3a3e41" font-family="FranklinGothicURW-Boo, FranklinGothic URW" font-weight="300"><tspan x="384.04" y="90">WHAT YOU</tspan> <tspan x="534.96" y="90"/><tspan font-family="FranklinGothicURW-Hea, FranklinGothic URW" font-weight="600" x="418.064" y="134">LOVE</tspan></text><text fill="#3e4241" font-family="FranklinGothicURW-Hea, FranklinGothic URW" font-weight="600"><tspan x="211.201" y="281">PASSION</tspan></text><text fill="#3e4241" font-family="FranklinGothicURW-Hea, FranklinGothic URW" font-weight="600"><tspan x="191.22" y="665">PROFESSION</tspan></text><text fill="#3e4241" font-family="FranklinGothicURW-Hea, FranklinGothic URW" font-weight="600"><tspan x="534.025" y="665">VOCATION</tspan></text><text fill="#3e4241" font-family="FranklinGothicURW-Boo, FranklinGothic URW" font-weight="300"><tspan x="725.771" y="416">WHAT THE </tspan><tspan x="745.917" y="460">WORLD</tspan> <tspan x="855.083" y="460"/><tspan font-family="FranklinGothicURW-Hea, FranklinGothic URW" font-weight="600" x="746.529" y="504">NEEDS</tspan></text><text fill="#3e4241" font-family="FranklinGothicURW-Boo, FranklinGothic URW" font-weight="300"><tspan x="33.04" y="416">WHAT YOU</tspan> <tspan x="79.208" y="460">ARE</tspan> <tspan x="137.792" y="460"/><tspan font-family="FranklinGothicURW-Hea, FranklinGothic URW" font-weight="600" x="38.588" y="504">GOOD AT</tspan></text><text fill="#3a3e41" font-family="FranklinGothicURW-Boo, FranklinGothic URW" font-weight="300"><tspan x="383.54" y="766">WHAT YOU </tspan><tspan x="404.037" y="810">CAN BE</tspan> <tspan x="513.963" y="810"/><tspan font-family="FranklinGothicURW-Hea, FranklinGothic URW" font-weight="600" x="383.098" y="854">PAID FOR</tspan></text></g><text fill="#fff" font-family="FranklinGothicURW-Hea, FranklinGothic URW" font-size="44" font-weight="600" letter-spacing=".323529422"><tspan x="393.371412" y="469">IKIGAI</tspan></text></g></svg>

<?xml version="1.0" encoding="UTF-8"?>
<svg width="905px" height="924px" viewBox="0 0 905 924" version="1.1" xmlns="http://www.w3.org/2000/svg" xmlns:xlink="http://www.w3.org/1999/xlink">
    <!-- Generator: Sketch 50.2 (55047) - http://www.bohemiancoding.com/sketch -->
    <title>Group 4</title>
    <desc>Created with Sketch.</desc>
    <defs></defs>
    <g id="Page-1" stroke="none" stroke-width="1" fill="none" fill-rule="evenodd">
        <g id="2.1.1.Corporate-Copy" transform="translate(-262.000000, -338.000000)">
            <g id="Group-4" transform="translate(262.000000, 338.000000)">
                <g id="Group-3">
                    <g id="Group-2">
                        <circle id="Oval" fill="#E0BE41" opacity="0.5" cx="453" cy="283" r="280"></circle>
                        <circle id="Oval-Copy" fill="#E0BE41" opacity="0.5" cx="453" cy="641" r="280"></circle>
                        <circle id="Oval-Copy-2" fill="#E0BE41" opacity="0.5" cx="283" cy="459" r="280"></circle>
                        <circle id="Oval-Copy-3" fill="#E0BE41" opacity="0.5" cx="622" cy="459" r="280"></circle>
                        <path d="M355.653799,545.614361 C346.790515,518.340289 342,489.229587 342,459 C342,431.266325 346.032112,404.474401 353.542099,379.178464 C384.448145,367.431678 417.972973,361 453,361 C487.601821,361 520.737694,367.276473 551.331226,378.753028 C558.922537,404.173933 563,431.110795 563,459 C563,489.384288 558.160328,518.638211 549.209806,546.032947 C519.208028,557.009782 486.803559,563 453,563 C418.769209,563 385.973097,556.857409 355.653799,545.614361 Z" id="Combined-Shape" fill="#1DAB78"></path>
                        <path d="M453,566 C296.703416,566 170,439.296584 170,283 C170,126.703416 296.703416,0 453,0 C609.296584,0 736,126.703416 736,283 C736,439.296584 609.296584,566 453,566 Z M453,560 C605.982876,560 730,435.982876 730,283 C730,130.017124 605.982876,6 453,6 C300.017124,6 176,130.017124 176,283 C176,435.982876 300.017124,560 453,560 Z" id="Oval-Copy-7" fill="#FFFFFF" fill-rule="nonzero"></path>
                        <path d="M453,566 C296.703416,566 170,439.296584 170,283 C170,126.703416 296.703416,0 453,0 C609.296584,0 736,126.703416 736,283 C736,439.296584 609.296584,566 453,566 Z M453,560 C605.982876,560 730,435.982876 730,283 C730,130.017124 605.982876,6 453,6 C300.017124,6 176,130.017124 176,283 C176,435.982876 300.017124,560 453,560 Z" id="Oval-Copy-14" fill="#FFFFFF" fill-rule="nonzero"></path>
                        <path d="M453,924 C296.703416,924 170,797.296584 170,641 C170,484.703416 296.703416,358 453,358 C609.296584,358 736,484.703416 736,641 C736,797.296584 609.296584,924 453,924 Z M453,918 C605.982876,918 730,793.982876 730,641 C730,488.017124 605.982876,364 453,364 C300.017124,364 176,488.017124 176,641 C176,793.982876 300.017124,918 453,918 Z" id="Oval-Copy-6" fill="#FFFFFF" fill-rule="nonzero"></path>
                        <path d="M283,742 C126.703416,742 0,615.296584 0,459 C0,302.703416 126.703416,176 283,176 C439.296584,176 566,302.703416 566,459 C566,615.296584 439.296584,742 283,742 Z M283,736 C435.982876,736 560,611.982876 560,459 C560,306.017124 435.982876,182 283,182 C130.017124,182 6,306.017124 6,459 C6,611.982876 130.017124,736 283,736 Z" id="Oval-Copy-5" fill="#FFFFFF" fill-rule="nonzero"></path>
                        <path d="M622,742 C465.703416,742 339,615.296584 339,459 C339,302.703416 465.703416,176 622,176 C778.296584,176 905,302.703416 905,459 C905,615.296584 778.296584,742 622,742 Z M622,736 C774.982876,736 899,611.982876 899,459 C899,306.017124 774.982876,182 622,182 C469.017124,182 345,306.017124 345,459 C345,611.982876 469.017124,736 622,736 Z" id="Oval-Copy-4" fill="#FFFFFF" fill-rule="nonzero"></path>
                    </g>
                </g>
                <text id="Mission" font-family="FranklinGothicURW-Hea, FranklinGothic URW" font-size="34" font-weight="600" line-spacing="44" letter-spacing="0.25" fill="#3E4241">
                    <tspan x="553.493" y="281">MISSION</tspan>
                </text>
                <text id="What-you-Love" font-family="FranklinGothicURW-Boo, FranklinGothic URW" font-size="34" font-weight="300" line-spacing="44" letter-spacing="0.25" fill="#3A3E41">
                    <tspan x="384.04" y="90">WHAT YOU</tspan>
                    <tspan x="534.96" y="90" font-family="FranklinGothicURW-Hea, FranklinGothic URW" font-weight="600"></tspan>
                    <tspan x="418.064" y="134" font-family="FranklinGothicURW-Hea, FranklinGothic URW" font-weight="600">LOVE</tspan>
                </text>
                <text id="Passion" font-family="FranklinGothicURW-Hea, FranklinGothic URW" font-size="34" font-weight="600" line-spacing="44" letter-spacing="0.25" fill="#3E4241">
                    <tspan x="211.201" y="281">PASSION</tspan>
                </text>
                <text id="Profession" font-family="FranklinGothicURW-Hea, FranklinGothic URW" font-size="34" font-weight="600" line-spacing="44" letter-spacing="0.25" fill="#3E4241">
                    <tspan x="191.22" y="665">PROFESSION</tspan>
                </text>
                <text id="Vocation" font-family="FranklinGothicURW-Hea, FranklinGothic URW" font-size="34" font-weight="600" line-spacing="44" letter-spacing="0.25" fill="#3E4241">
                    <tspan x="534.025" y="665">VOCATION</tspan>
                </text>
                <text id="What-the-world-needs" font-family="FranklinGothicURW-Boo, FranklinGothic URW" font-size="34" font-weight="300" line-spacing="44" letter-spacing="0.25" fill="#3E4241">
                    <tspan x="725.771" y="416">WHAT THE </tspan>
                    <tspan x="745.917" y="460">WORLD</tspan>
                    <tspan x="855.083" y="460" font-family="FranklinGothicURW-Hea, FranklinGothic URW" font-weight="600"></tspan>
                    <tspan x="746.529" y="504" font-family="FranklinGothicURW-Hea, FranklinGothic URW" font-weight="600">NEEDS</tspan>
                </text>
                <text id="What-you-are-good-at" font-family="FranklinGothicURW-Boo, FranklinGothic URW" font-size="34" font-weight="300" line-spacing="44" letter-spacing="0.25" fill="#3E4241">
                    <tspan x="33.04" y="416">WHAT YOU</tspan>
                    <tspan x="79.208" y="460">ARE</tspan>
                    <tspan x="137.792" y="460" font-family="FranklinGothicURW-Hea, FranklinGothic URW" font-weight="600"></tspan>
                    <tspan x="38.588" y="504" font-family="FranklinGothicURW-Hea, FranklinGothic URW" font-weight="600">GOOD AT</tspan>
                </text>
                <text id="What-you-can-be-Paid" font-family="FranklinGothicURW-Boo, FranklinGothic URW" font-size="34" font-weight="300" line-spacing="44" letter-spacing="0.25" fill="#3A3E41">
                    <tspan x="383.54" y="766">WHAT YOU </tspan>
                    <tspan x="404.037" y="810">CAN BE</tspan>
                    <tspan x="513.963" y="810" font-family="FranklinGothicURW-Hea, FranklinGothic URW" font-weight="600"></tspan>
                    <tspan x="383.098" y="854" font-family="FranklinGothicURW-Hea, FranklinGothic URW" font-weight="600">PAID FOR</tspan>
                </text>
                <text id="Ikigai" font-family="FranklinGothicURW-Hea, FranklinGothic URW" font-size="44" font-weight="600" line-spacing="44" letter-spacing="0.323529422" fill="#FFFFFF">
                    <tspan x="393.371412" y="469">IKIGAI</tspan>
                </text>
            </g>
        </g>
    </g>
</svg>
